X: 010307
T: Ann Droney's
S: Chris Droney
Z: B.Black
R: reel
M: 4/4
L: 1/8
K: D
F | Adcd B2 dB | A2 FD EGFE | D2 FA d3 d |\
Beed cABd |
Adcd fedc | A2 FD EGFE | DEFA dedB | AFEF D3 :|
e | faaf bfaf | gfed Bd (3dcd | fdad bdad |\
bafe d3 e |
fdad bdad | gfed Bcde | fgfe dedB | AFEF D3 :|
